svgs/regular/person-seat-reclined.svg

<svg xmlns="http://www.w3.org/2000/svg" viewBox="0 0 448 512"><!-- Font Awesome Pro 6.0.0-alpha2 by @fontawesome - https://fontawesome.com License - https://fontawesome.com/license (Commercial License) --><path d="M264.003 384H149.052C115.427 384 86.474 359.344 80.24 325.344L47.615 147.656C45.209 134.625 32.615 125.875 19.679 128.406C6.632 130.781 -1.993 143.312 0.398 156.344L33.021 334.031C43.459 390.781 92.255 432 149.052 432H264.003C277.251 432 288.001 421.25 288.001 408S277.251 384 264.003 384ZM112.005 96C138.515 96 160.003 74.508 160.003 48S138.515 0 112.005 0S64.005 21.492 64.005 48S85.496 96 112.005 96ZM424 432H391.703L341.986 318.375C338.173 309.656 329.533 304 320.001 304H187.564L175.564 240H296.001C309.255 240 320.001 229.254 320.001 216C320.001 202.744 309.255 192 296.001 192H166.564L159.457 154.094C156.207 136.719 139.49 125.312 122.115 128.562S93.302 148.531 96.552 165.906L126.552 325.906C129.443 341.281 142.865 352 157.972 352C159.101 352 304.298 352 304.298 352L354.017 465.625C357.83 474.344 366.47 480 376.001 480H424C437.25 480 448 469.25 448 456S437.25 432 424 432Z"/></svg>

<svg xmlns="http://www.w3.org/2000/svg" viewBox="0 0 448 512"><!--! Font Awesome Pro 6.0.0-alpha3 by @fontawesome - https://fontawesome.com License - https://fontawesome.com/license (Commercial License) --><path d="M264 384H149.1c-33.63 0-62.58-24.66-68.81-58.66L47.62 147.7c-2.406-13.03-15-21.78-27.94-19.25C6.633 130.8-1.992 143.3 .3984 156.3l32.62 177.7C43.46 390.8 92.26 432 149.1 432h114.1c13.25 0 23.1-10.75 23.1-24S277.3 384 264 384zM112 96c26.51 0 47.1-21.49 47.1-48S138.5 0 112 0s-48 21.49-48 48S85.5 96 112 96zM424 432h-32.3l-49.72-113.6C338.2 309.7 329.5 304 320 304H187.6l-12-64h120.4c13.25 0 24-10.75 24-24c0-13.26-10.75-24-24-24H166.6L159.5 154.1C156.2 136.7 139.5 125.3 122.1 128.6S93.3 148.5 96.55 165.9l30 160C129.4 341.3 142.9 352 157.1 352h146.3l49.72 113.6C357.8 474.3 366.5 480 376 480H424c13.25 0 24-10.75 24-24S437.3 432 424 432z"/></svg>
